X: 3
T: The Swallowtail
R: jig
M: 6/8
L: 1/8
K: Ador
B|cAA eAA|cAA e2A|BGG dGG|gfe dcB|ccA eAA|cAA e2f|gfe dcB|1cAA A2:|2cAA A3|:efg a2b|a2b age-|efg a2b|age g3|efg a2b|a2b agf|gfe dcB|Bce A3:|


Tune 106	Setting 12678

